Obsidian-SemiLight/actions/24s/go-previous-context.svg

<svg viewBox="0 0 24 24" xmlns="http://www.w3.org/2000/svg"><path d="m7 4-4 8 4 8h14v-16zm5.435547 4v.5917969c-.71072 0-.728516.2391587-.728516 1.1054687v1.0175784c0 .41547-.123616 1.032712-.722656 1.289062.59904.25635.722656.875556.722656 1.291016v1.007812c0 .86631.017696 1.105469.728516 1.105469v.591797c-1.0661 0-1.521474-.352246-1.521485-1.253906v-1.222656c.000001-.556911-.0404-1.201172-.61914-1.201172h-.294922v-.644532h.294922c.57874 0 .61915-.644261.61914-1.201172v-1.2226558c.000001-.90166.455385-1.2539062 1.521485-1.2539062zm3.136719 0c1.06609 0 1.513672.3522462 1.513672 1.2539062v1.2226558c0 .55691.020504 1.201172.609374 1.201172h.304688v.644532h-.304688c-.58887 0-.609374.644261-.609374 1.201172v1.222656c-.000001.90166-.447582 1.253906-1.513672 1.253906v-.591797c.7197 0 .720703-.239159.720703-1.105469v-1.007812c0-.41546.123616-1.034666.722656-1.291016-.59904-.25635-.722656-.873592-.722656-1.289062v-1.0175784c0-.86631-.010003-1.1054687-.720703-1.1054687z" fill="#4d4d4d"/></svg>

<svg xmlns="http://www.w3.org/2000/svg" viewBox="0 0 24 24">
  <defs id="defs3051">
    <style type="text/css" id="current-color-scheme">
      .ColorScheme-Text {
        color:#4d4d4d;
      }
      </style>
  </defs>
 <path style="fill:currentColor;fill-opacity:1;stroke:none" 
     d="M 7 4 L 3 12 L 7 20 L 21 20 L 21 4 L 7 4 z M 12.435547 8 L 12.435547 8.5917969 C 11.724827 8.5917969 11.707031 8.8309556 11.707031 9.6972656 L 11.707031 10.714844 C 11.707031 11.130314 11.583415 11.747556 10.984375 12.003906 C 11.583415 12.260256 11.707031 12.879462 11.707031 13.294922 L 11.707031 14.302734 C 11.707031 15.169044 11.724727 15.408203 12.435547 15.408203 L 12.435547 16 C 11.369447 16 10.914073 15.647754 10.914062 14.746094 L 10.914062 13.523438 C 10.914063 12.966527 10.873662 12.322266 10.294922 12.322266 L 10 12.322266 L 10 11.677734 L 10.294922 11.677734 C 10.873662 11.677734 10.914072 11.033473 10.914062 10.476562 L 10.914062 9.2539062 C 10.914063 8.3522462 11.369447 8 12.435547 8 z M 15.572266 8 C 16.638356 8 17.085938 8.3522462 17.085938 9.2539062 L 17.085938 10.476562 C 17.085938 11.033472 17.106442 11.677734 17.695312 11.677734 L 18 11.677734 L 18 12.322266 L 17.695312 12.322266 C 17.106442 12.322266 17.085938 12.966527 17.085938 13.523438 L 17.085938 14.746094 C 17.085937 15.647754 16.638356 16 15.572266 16 L 15.572266 15.408203 C 16.291966 15.408203 16.292969 15.169044 16.292969 14.302734 L 16.292969 13.294922 C 16.292969 12.879462 16.416585 12.260256 17.015625 12.003906 C 16.416585 11.747556 16.292969 11.130314 16.292969 10.714844 L 16.292969 9.6972656 C 16.292969 8.8309556 16.282966 8.5917969 15.572266 8.5917969 L 15.572266 8 z "
     class="ColorScheme-Text"
     />
</svg>
